src/assets/trash.svg

<?xml version="1.0" encoding="UTF-8" standalone="no"?>
<!DOCTYPE svg PUBLIC "-//W3C//DTD SVG 1.1//EN" "http://www.w3.org/Graphics/SVG/1.1/DTD/svg11.dtd">
<svg width="100%" height="100%" viewBox="0 0 24 24" version="1.1" xmlns="http://www.w3.org/2000/svg" xmlns:xlink="http://www.w3.org/1999/xlink" xml:space="preserve" xmlns:serif="http://www.serif.com/" style="fill-rule:evenodd;clip-rule:evenodd;stroke-linecap:round;stroke-linejoin:round;">
    <path d="M3,6L21,6" style="fill:none;fill-rule:nonzero;stroke:black;stroke-width:2px;"/>
    <path d="M19,6L19,20C19,21.097 18.097,22 17,22L7,22C5.903,22 5,21.097 5,20L5,6M8,6L8,4C8,2.903 8.903,2 10,2L14,2C15.097,2 16,2.903 16,4L16,6" style="fill:none;fill-rule:nonzero;stroke:black;stroke-width:2px;"/>
    <path d="M10,11L10,17" style="fill:none;fill-rule:nonzero;stroke:black;stroke-width:2px;"/>
    <path d="M14,11L14,17" style="fill:none;fill-rule:nonzero;stroke:black;stroke-width:2px;"/>
</svg>

<?xml version="1.0" ?><svg fill="none" height="24" stroke="#000" stroke-linecap="round" stroke-linejoin="round" stroke-width="2" viewBox="0 0 24 24" width="24" xmlns="http://www.w3.org/2000/svg"><polyline points="3 6 5 6 21 6"/><path d="M19 6v14a2 2 0 0 1-2 2H7a2 2 0 0 1-2-2V6m3 0V4a2 2 0 0 1 2-2h4a2 2 0 0 1 2 2v2"/><line x1="10" x2="10" y1="11" y2="17"/><line x1="14" x2="14" y1="11" y2="17"/></svg>
